X:1
T:3 Spring Songs
T:All the World Awakes Today
T:3 Spring Songs
T:Edward German
T:1. All the World Awakes Today
T:Harold Boulton
T:OpenScore (CC0)
T:OpenScore (CC0)
T:OpenScore (CC0)
T:OpenScore (CC0)
T:OpenScore (CC0)
T:OpenScore (CC0)
T:OpenScore (CC0)
C:Edward German
Z:Harold Boulton
Z:OpenScore (CC0)
%%score 1 { ( 2 5 ) | ( 3 4 ) }
L:1/8
Q:3/8=160
M:6/8
K:F
V:1 treble nm="Voice"
V:2 treble nm="Piano"
V:5 treble 
V:3 bass 
V:4 bass 
V:1
"^Allegro Vivace" z3 | z6 | z6 | z6 | z6 | z6 | z6 | z6 | z6 | z6 | z6 |[Q:1/4=210] z6 | %12
w: ||||||||||||
[Q:3/8=120] z3!f! c3/2 c/ |"^allargando" !>!f4-[Q:1/4=175] | f4-[Q:1/4=170] | f3!mf! A | !>!c3 E || %17
w: All the|world|_|* a-|wakes to-|
[Q:3/8=160]"^Tempo Io" !>!F4 |!p! F3 G | A2 c2 | c3 ^c | (d4 | A2) z3 | c2 c2 | c2{Bc} (BA) | %25
w: day|To the|mu- sic|of the|May.|_|Bird and|bee and *|
 B2 d2 | (d2 c2) |!<(! (A=B) (cd)!<)! | e2 A2 | =B3 E |[Q:3/8=164] A4- |[Q:3/8=168] A4- | %32
w: stream are|one _|In * har- *|mo- nious|or- i-|son.|_|
[Q:3/8=172] A4 |[Q:3/8=176] z3!mf![Q:3/8=170] c c |[Q:3/8=144]"^meno mosso" !tenuto!e2 d2 | D2 E2 | %36
w: |In your|beau- teous,|beau- teous|
 G3 F |!<(! (A2 c2)!<)! |!f! !>!e2 d2 | c2 ^F2 | A3 G | (=B2 d2) | =f3 F | F4- | %44
w: youth- ful|eyes _|Love lies|dream- ing|la- zi-|\- ly; _|When he|stirs,|
!>(!"^dim." F F F F!>)! |!>(! F4!>)! |!p! c2 F2- | F2 A c | d4- | %49
w: _ as will be|soon,|Maid- en,|_ may I|set|
"^rall."[Q:3/8=80] d2[Q:3/8=140] D2 |[Q:3/8=140] (E2 c2- |[Q:3/8=144] c4- |[Q:3/8=148] c4- | %53
w: _ the|tune? _|_||
[Q:3/8=152] c) z3/2 z3 |[Q:3/8=156] z6 |[Q:3/8=150] z6 |[Q:3/8=148] z6 |[Q:3/8=145] z6 | %58
w: |||||
[Q:3/8=141] z6 ||[M:6/8][Q:1/4=200]"^Allegro giocoso" z6 | z2 z!p! F2 G |!<(! A2 B c2 d!<)! | %62
w: ||Such a|mov- ing mer- ry|
 e2 d c2 A |!<(! c6-!<)! |!>(! c2 d c2 A!>)! | c3 G3- | G3!pp!!<(! G2 A | B2 c d2 B!<)! | %68
w: num- ber Will I|use|_ to wake his|slum- ber,|_ Our two|hearts will trip a|
!>(! A2 B!>)!!<(! c2 A | G2 A B2 G!<)! | F3 C3- | C6- | C3 C2 A | G2 A B2 c |!<(! A2 =B c2 d!<)! | %75
w: mea- sure Full of|wild un- count- ed|plea- sure,|_|* Our two|hearts will trip a|mea- sure Full of|
!f! !>!e6- | e6- | e3 !>!A3 | !>!=B3 !>!E3 |[Q:1/4=180]"^rall. molto" !>!A3 c3- | %80
w: wild|_|* un-|count- ed|plea- sure|
[Q:1/4=170] c6-[Q:1/4=160] ||"^a tempo"[Q:3/8=144] c z z z2 z | z2 z!p! F2 G | A2 B c2 d | %84
w: _||’Tis the|ve- ry time and|
 e2 d c2 A | !tenuto!c6- | c2 d c2 A | (c3 G3- | G3) G2 A | B2 c d2 B | (A2 B) c2 A | G2 A B2 G | %92
w: place For such a|wa-|* ken- ing to|grace; _|_ All the|world a- wakes to|day * To the|mu- sic of the|
 (F3 C3- | C6- | C3) C2 A |!<(! G2 A B2 A | (c2 B)!<)!!mf! A2 G | %97
w: May, _|_|* To the|mu- sic of the|May, * All the|
[Q:3/8=140] F2 F"^cresc.   e   rall.   sempre" A2 A |[Q:3/8=136] d3 c2 c |[Q:3/8=132] B2 B d2 d | %100
w: world a- wakes to-|day, All the|world a- wakes to-|
!f! (!>!g6- | (2:3:2ge)[Q:1/4=120]"^Largamente" !>!c2 !>!c | (!>!f6-[Q:1/4=110] | %103
w: day,|_ _ So with|love|
 fd) !tenuto!!fermata!B !fermata!G2 F |[Q:1/4=216]"_Allegro molto" F6- |!>(! F6-!>)! | F z z z2 z | %107
w: _ _ we’ll crown the|May.|_||
 z6 | z6 | z6 | z6 | z6 | z6 | z6 | z6 |] %115
w: ||||||||
V:2
!p! (F2 G | A2!<(! B c2 d | e2 d c2 A!<)! | !tenuto!c6- | c2)!p!!<(! (d c2 A!<)! | !tenuto!c6- | %6
!p!!<(! c3) (f2 g | a2 b c'2 d' | e'2 d' c'2 a!<)! |!f! !tenuto!c'3) !tenuto!f3 | %10
!<(! !tenuto!a3 !tenuto!c3 |"_rit." !>!d3 !>!A3!<)! | !>!c6 |"^allargando" z2 z [Fcf]3- | %14
 [Fcf]3 [cfc']3 | [fc'f']3 z2 z | [CEc]3 z2 z ||!>(! z2 z z2 z!>)! |!p! z2 z z2 z | z2 z z2 z | %20
 z2 z z2 z | z2 z z2 z | z2 z z2 z | z2 z z2 z | z2 z z2 z | z2 z z2 z | z2 z z2 z | z2 z z2 z | %28
 z2 z z2 z | z2 z z2 z |"_accel." z2 z z2 z |"_molto" z2 z z2 z | z2 z z2 z |!<(! z2 z z2 z!<)! | %34
!mf! (!tenuto![ce]3 [_Bd]3 | (4:6:2!tenuto!A3 E) | (4:6:2G3 F |!<(! ([A,A]3 [Cc]3)!<)! | %38
!f! (!tenuto![E^Fce]3 [Dd]3 | (4:6:2c3 ^F) | (4:6:2(A3 G | ([=B,=B]3) [Dd]3) | %42
 [=F=f]3 !>![=B,F]3- |!>(! [B,F]3 [=B,F]3!>)! |!p!!>(! [CF]6- | [CF]3 [_DFG]3!>)! | %46
!pp!!<(! [CFc]3 z2 z | !arpeggio![cfc']3 z2 z | !arpeggio![DFd]3 z2 z | %49
"_rall." !arpeggio![dfd']3 z2 z!<)! |!p! [B,E]3!mp!"_accel.  e  cresc." (G2 A | B2 c d2 e | %52
 fga A2) (e | d2 e f2 g |!mp!!<(! abc' d'e'f'!<)! |!mf! !>!e')z(e' c')z(c' | d')z(d' a)z(a | %57
"_rit." c')z!>(!(c' !tenuto!d)z(d | !tenuto!a)z(a !tenuto!c)z(c!>)! || %59
[M:6/8]"^Allegro giocoso" !>![Ff]) z z!p!!>(! (A,CF | A,CF A,CF!>)! | A,CF A,CF | A,CF A,CF) | %63
 (A,_EA)"^ten." !tenuto!C3 | (A,_EA)"^ten." !tenuto!C3 | (B,=EB)"^ten." !tenuto!C3 | %66
 (B,EB)"^ten." !tenuto!C3 |!pp! (B,CE)"^ten." !tenuto!C3 | (A,CF)"^ten." !tenuto!C3 | %69
 (B,CE)"^ten." !tenuto!C3 |!p!!<(! ([A,F]2 G ABc)!<)! | (B2 c d2 B |!>(! A2 B c2 A!>)! | %73
 G2 A B2 c |!<(! A2 =B c2 d)!<)! | [Ae]3 [Aea]3- | [Aea]3 [cec']3 | [eae']3 z2 z | %78
 [E^Ge] z z z2 z |"_rall. molto" [CEA] z z (!tenuto!C!tenuto!E!tenuto!c) | %80
(!tenuto!x!tenuto!F!tenuto!c)(!tenuto!x!tenuto!E!tenuto!c) || %81
!f!"^a tempo"!>(! A,Fc!>)!!p!!>(! (A,CF | A,CF A,CF | A,CF A,CF | A,CF A,CF) | %85
 (A,_EA)"^ten." !tenuto!C3 | (A,_EA)"^ten." !tenuto!C3 | (B,=EB)"^ten." !tenuto!C3 | %88
 (B,EB)"^ten." !tenuto!C3!>)! |!pp! (B,CE)"^ten." !tenuto!C3 | (A,CF)"^ten." !tenuto!C3 | %91
 (B,CE)"^ten." !tenuto!C3 |!p!!<(! ([A,F]2 G ABc)!<)! | (B2 c d2 B | A2 B c2 A) |!<(! (G2 A B2 A | %96
 =c2 B A2!<)! G) |!mf! !>!F3"^cresc.   e   rall.   sempre" !>![EA]3 | !>![DFd]3 !>![CFc]3 | %99
 !>![B,DB]3 !>![DAd]3 |!f! !>![Gcg]3 !>![F=Bf]3 | %101
 (2:3:2!>![Ece]!>![Dd]"^Largamente" (2:3:2!>![CEAc]!>![CEAc] | !>![CFc]3 !>![^CF^c]3 | %103
 !>![DFd]2 !tenuto![B,DFB] !tenuto!!fermata!G2 F | [A,CF]3!mp!!<(! (_e2 f | g2 a b2 c' | %106
 d'2!<)! b!>(! g2 a | b2 c' d'2 e' | .f')!>)! z z .a z z |!p!!>(! .[cc'] z z .e z z | %110
 .[Ff] z z .A z z | .[B,Fc] z z .[B,E] z z | .[A,F] z z z2 z | .[FAf] z z z2 z!>)! | %114
!ppp! .[faf'] z z z2 z |] %115
V:3
 z2 z | z6 | z6 |!ped! z6!ped-up! | z6 |!ped! z6 | z6!ped-up! | z6 | z6 |!ped! z6 | z6 | z6 | %12
 z6!ped-up! |!ped! z2 z [A,C]3- | [A,C]3[I:staff -1] [CFA]3 | [Ac]3!ped-up![I:staff +1] z2 z | %16
!ped! [C,G,B,]3 z2 z!ped-up! ||!ped! (F,,C,F,[I:staff -1] A,CF)!ped-up! | %18
!ped![I:staff +1] (B,,F,B,[I:staff -1] DFd)!ped-up! | %19
!ped![I:staff +1] (A,,C,F,[I:staff -1] CFc)!ped-up! | %20
!ped![I:staff +1] (G,,C,E,[I:staff -1] B,EB)!ped-up! | %21
!ped![I:staff +1] (F,,D,F,[I:staff -1] A,DA)!ped-up! | %22
!ped![I:staff +1] (C,F,A,[I:staff -1] CFc)!ped-up! | %23
!ped![I:staff +1] (A,,F,C[I:staff -1] Ece)!ped-up! | %24
!ped![I:staff +1] (B,,F,B,[I:staff -1] DBd)!ped-up! | %25
!ped![I:staff +1] (G,,C,E,[I:staff -1] DBd)!ped-up! | %26
!ped![I:staff +1] (A,,C,F,[I:staff -1] CFc)!ped-up! | %27
!ped![I:staff +1] (F,A,=B,[I:staff -1] DAd)!ped-up! | %28
!ped![I:staff +1] (E,A,C[I:staff -1] EAe)!ped-up! |!ped![I:staff +1] (E,=B,D[I:staff -1] E^Ge) | %30
[I:staff +1] (!>!A,,E,A,[I:staff -1] CEA) |[I:staff +1] (!>!E,A,C[I:staff -1] EAc) | %32
[I:staff +1] (!>!A,CE[I:staff -1] Ace)!ped-up! | %33
!ped![I:staff +1] (!>!CEA[I:staff -1] cea)!ped-up! |!ped![I:staff +1] (=G,,D,G, _B,) z z!ped-up! | %35
 C,,3 C,3 |!ped! (F,,C,F, A,) z z | (F,,C,F, A,) z z!ped-up! |!ped! (D,,A,,D, ^F,) z z | %39
 (D,,A,,D, ^F,) z z!ped-up! |!ped! (G,,D,G, =B,) z z | (G,,D,G, =B,) z z!ped-up! | %42
!ped! z2 z [D,=F,]3- | [D,F,]3!ped-up! [^G,,D,F,]3 | [A,,F,]6- | [A,,F,]3 [_B,,F,G,]3 | %46
!ped! [C,=A,]3 z2 z |[I:staff -1] [CFA]3[I:staff +1] z2 z!ped-up! |!ped! [C,G,B,]3 z2 z | %49
[I:staff -1] [DFB]3[I:staff +1] z2 z!ped-up! |!ped! [C,,C,]3 C3 | (G,CE B,CE)!ped-up! | %52
 (A,CF) C z z |!ped! (C,G,B, D) z z | (C,G,B, D) z!ped-up! z |!ped! (C,A,C F) z z!ped-up! | %56
!ped! (C,^F,A, _E) z z!ped-up! |!ped! (C,G,B, D) z z!ped-up! |!ped! (C,B,C E) z z!ped-up! || %59
[M:6/8]"^ten."!ped! !tenuto!C,6- | C,6- | C,6- | C,6-!ped-up! |!ped! C,6- | C,6-!ped-up! | %65
!ped! C,6- | C,6!ped-up! |!ped! C,6-!ped-up! |!ped! C,6-!ped-up! |!ped! C,6-!ped-up! | %70
 .[F,,C,] z z !>!C3 |!ped! (G,CE C,) z z!ped-up! |!ped! (A,CF C,) z z!ped-up! | %73
!ped! (B,CE C,) z z!ped-up! |!ped! (F,A,=B, D) z z!ped-up! |!ped! [E,A,C]3 [CE]3- | %76
 [CE]3[I:staff -1] [CEA]3 | [EAc]3[I:staff +1] z2 z!ped-up! | [E,=B,D] z z z2 z | %79
!ped! [A,,E,A,] z z z2 z!ped-up! |!>(! =G,,3 !tenuto!C,3!>)! || %81
"^ten."!ped! !tenuto!C,6-!ped-up!!ped! | C,6-!ped-up! |!ped! C,6- | C,6-!ped-up! |!ped! C,6- | %86
 C,6-!ped-up! |!ped! C,6- | C,6 | C,6-!ped-up! |!ped! C,6- | C,6-!ped-up! | %92
 [F,,C,] z z !tenuto!C3 | (G,B,E C,) z z | (A,CF C,) z z | (C,G,B, E) z z | (^C,G,B, E) z z | %97
 [D,F,A,]3 [C,F,A,]3 | [B,,F,B,]3 [A,,D,F,]3 | [G,,D,G,]3 [F,A,]3 | [E,G,C]3 [D,G,=B,]3 | %101
 [C,G,C]3 [_B,,_B,]3 | [A,,F,A,]3 [F,A,_E]3 | %103
 [B,,F,B,]2 !tenuto![G,,G,]!ped! !tenuto!!fermata![C,,C,]3!ped-up! |!ped! [F,,,F,,]6- | %105
 [F,,,F,,]6- | [F,,,F,,]!ped-up! z z z2 z | z6 | z6 | .[A,E] z z z2 z | .[D,A,] z z z2 z | %111
 .[G,,G,] z z .C, z z |!ped! .[F,,C,] z z z2 z | .[C,A,] z z z2 z | %114
[I:staff -1] .[CA][I:staff +1] z!ped-up! z z2 z |] %115
V:4
 x3 | x6 | x6 | x6 | x6 | x6 | x/ x11/2 | x6 | x6 | x6 | x6 | x6 | x6 | [C,,C,]6- | [C,,C,]6- | %15
 [C,,C,]3 x3 | x6 || x6 | x6 | x6 | x6 | x6 | x6 | x3[I:staff -1] !tenuto!E3 | x3 !tenuto!D3 | %25
 x3 D3 | x3 C3 | x6 | x6 | x6 | x6 | x6 | x6 | x6 | x6 | x6 | x6 | x6 | x6 | x6 | x6 | x6 | %42
[I:staff +1] ^G,,6- | G,,3 x3 | x6 | x6 | x6 | x6 | x6 | x6 | x6 | x6 | x6 | x6 | x6 | x6 | x6 | %57
 x6 | x6 ||[M:6/8] .F,, z z .C,, z z | .F,, z z .C,, z z | .F,, z z .C,, z z | .F,, z z .C,, z z | %63
 .^F,, z z .C,, z z | .^F,, z z .C,, z z | .G,, z z .C,, z z | .G,, z z .C,, z z | %67
 .G,, z z .C,, z z | .F,, z z .C,, z z | .G,, z z .C,, z z | x6 | x6 | x6 | x6 | x6 | x6 | x6 | %77
 x6 | x6 | x6 | x6 || .F,, z z .C,, z z | .F,, z z .C,, z z | .F,, z z .C,, z z | %84
 .F,, z z .C,, z z | .^F,, z z .C,, z z | .^F,, z z .C,, z z | .G,, z z .C,, z z | %88
 .G,, z z .C,, z z | .G,, z z .C,, z z | .F,, z z .C,, z z | .G,, z z .C,, z z | x6 | x6 | x6 | %95
 x6 | x6 | x6 | x6 | x6 | x6 | x6 | x6 | x6 | x6 | x6 | x6 | x6 | x6 | x6 | x6 | x6 | x6 | x6 | %114
 x6 |] %115
V:5
 x3 | x6 | x6 | x6 | x6 | x6 | x6 | x6 | x6 | x6 | x6 | x6 | x6 | x6 | x6 | x6 | x6 || x6 | x6 | %19
 x6 | x6 | x6 | x6 | x6 | x6 | x6 | x6 | x6 | x6 | x6 | x6 | x6 | x6 | x6 | x6 | %35
 (4:6:2[B,D]2 [B,C]2 | x6 | x6 | x6 | (4:6:2[CE]2 [CD]2 | x6 | x6 | x6 | x6 | x6 | x6 | x6 | x6 | %48
 x6 | x6 | x6 | x6 | x6 | x6 | x6 | x6 | x6 | x6 | x6 ||[M:6/8] x6 | x6 | x6 | x6 | x6 | x6 | x6 | %66
 x6 | x6 | x6 | x6 | x6 | x6 | x6 | x6 | x6 | x6 | x6 | x6 | x6 | x3 C3 | _B,3 B,3 || x6 | x6 | %83
 x6 | x6 | x6 | x6 | x6 | x6 | x6 | x6 | x6 | x6 | x6 | x6 | x6 | x6 | x6 | x6 | x6 | x6 | x6 | %102
 x6 | x2 x [B,CE]3 | x3 (!>!_EFA | !>!CFA !>!_EFA | !>!DFB DFB | C=EB CEB | .[FA]) x5 | x6 | x6 | %111
 x6 | x6 | x6 | x6 |] %115

